assets/img/hexagon.svg

<svg width="291" height="323" viewBox="0 0 291 323" fill="none" xmlns="http://www.w3.org/2000/svg">
<g filter="url(#filter0_d_1756_3924)">
<path d="M137.5 27.6188C142.45 24.7607 148.55 24.7607 153.5 27.6188L247.918 82.1312C252.869 84.9893 255.918 90.2714 255.918 95.9876V205.012C255.918 210.729 252.869 216.011 247.918 218.869L153.5 273.381C148.55 276.239 142.45 276.239 137.5 273.381L43.0818 218.869C38.1313 216.011 35.0818 210.729 35.0818 205.012V95.9876C35.0818 90.2714 38.1313 84.9893 43.0818 82.1312L137.5 27.6188Z" fill="white"/>
</g>
<g filter="url(#filter1_d_1756_3924)">
<path d="M153.378 15.858L258.164 76.3561C263.039 79.1708 266.043 84.3725 266.043 90.0019V210.998C266.043 216.627 263.039 221.829 258.164 224.644L153.378 285.142C148.503 287.957 142.497 287.957 137.622 285.142L32.8358 224.644C27.9606 221.829 24.9574 216.627 24.9574 210.998V90.0019C24.9574 84.3725 27.9606 79.1708 32.8358 76.3561L137.622 15.858C142.497 13.0433 148.503 13.0433 153.378 15.858Z" stroke="#65CB88" stroke-width="4"/>
</g>
<defs>
<filter id="filter0_d_1756_3924" x="15.0818" y="15.4752" width="260.836" height="290.05" filterUnits="userSpaceOnUse" color-interpolation-filters="sRGB">
<feFlood flood-opacity="0" result="BackgroundImageFix"/>
<feColorMatrix in="SourceAlpha" type="matrix" values="0 0 0 0 0 0 0 0 0 0 0 0 0 0 0 0 0 0 127 0" result="hardAlpha"/>
<feOffset dy="10"/>
<feGaussianBlur stdDeviation="10"/>
<feColorMatrix type="matrix" values="0 0 0 0 0.160784 0 0 0 0 0.160784 0 0 0 0 0.164706 0 0 0 0.07 0"/>
<feBlend mode="normal" in2="BackgroundImageFix" result="effect1_dropShadow_1756_3924"/>
<feBlend mode="normal" in="SourceGraphic" in2="effect1_dropShadow_1756_3924" result="shape"/>
</filter>
<filter id="filter1_d_1756_3924" x="0.76144" y="0.648909" width="289.477" height="321.898" filterUnits="userSpaceOnUse" color-interpolation-filters="sRGB">
<feFlood flood-opacity="0" result="BackgroundImageFix"/>
<feColorMatrix in="SourceAlpha" type="matrix" values="0 0 0 0 0 0 0 0 0 0 0 0 0 0 0 0 0 0 127 0" result="hardAlpha"/>
<feOffset dy="11.098"/>
<feGaussianBlur stdDeviation="11.098"/>
<feColorMatrix type="matrix" values="0 0 0 0 0.160784 0 0 0 0 0.160784 0 0 0 0 0.164706 0 0 0 0.07 0"/>
<feBlend mode="normal" in2="BackgroundImageFix" result="effect1_dropShadow_1756_3924"/>
<feBlend mode="normal" in="SourceGraphic" in2="effect1_dropShadow_1756_3924" result="shape"/>
</filter>
</defs>
</svg>

<svg width="291" height="323" fill="none" xmlns="http://www.w3.org/2000/svg"><g filter="url(#a)"><path d="M137.5 27.619a16 16 0 0 1 16 0l94.418 54.512c4.951 2.858 8 8.14 8 13.857v109.024a15.999 15.999 0 0 1-8 13.857L153.5 273.381a16 16 0 0 1-16 0l-94.418-54.512a16 16 0 0 1-8-13.857V95.988a16 16 0 0 1 8-13.857L137.5 27.62Z" fill="#fff"/></g><g filter="url(#b)"><path d="m153.378 15.858 104.786 60.498a15.758 15.758 0 0 1 7.879 13.646v120.996a15.759 15.759 0 0 1-7.879 13.646l-104.786 60.498a15.754 15.754 0 0 1-15.756 0L32.836 224.644a15.758 15.758 0 0 1-7.879-13.646V90.002c0-5.63 3.004-10.831 7.879-13.646l104.786-60.498a15.755 15.755 0 0 1 15.756 0Z" stroke="#65CB88" stroke-width="4"/></g><defs><filter id="a" x="15.082" y="15.475" width="260.836" height="290.05" filterUnits="userSpaceOnUse" color-interpolation-filters="sRGB"><feFlood flood-opacity="0" result="BackgroundImageFix"/><feColorMatrix in="SourceAlpha" values="0 0 0 0 0 0 0 0 0 0 0 0 0 0 0 0 0 0 127 0" result="hardAlpha"/><feOffset dy="10"/><feGaussianBlur stdDeviation="10"/><feColorMatrix values="0 0 0 0 0.160784 0 0 0 0 0.160784 0 0 0 0 0.164706 0 0 0 0.07 0"/><feBlend in2="BackgroundImageFix" result="effect1_dropShadow_1756_3924"/><feBlend in="SourceGraphic" in2="effect1_dropShadow_1756_3924" result="shape"/></filter><filter id="b" x=".761" y=".649" width="289.477" height="321.898" filterUnits="userSpaceOnUse" color-interpolation-filters="sRGB"><feFlood flood-opacity="0" result="BackgroundImageFix"/><feColorMatrix in="SourceAlpha" values="0 0 0 0 0 0 0 0 0 0 0 0 0 0 0 0 0 0 127 0" result="hardAlpha"/><feOffset dy="11.098"/><feGaussianBlur stdDeviation="11.098"/><feColorMatrix values="0 0 0 0 0.160784 0 0 0 0 0.160784 0 0 0 0 0.164706 0 0 0 0.07 0"/><feBlend in2="BackgroundImageFix" result="effect1_dropShadow_1756_3924"/><feBlend in="SourceGraphic" in2="effect1_dropShadow_1756_3924" result="shape"/></filter></defs></svg>
